X: 024
T: Catch as catch can
B: 204 Favourite Country Dances
N: Published by Straight & Skillern, London ca.1775
F: http://imslp.org/wiki/204_Favourite_Country_Dances_(Various) p.12 #24
Z: 2014 John Chambers <jc:trillian.mit.edu>
N: Bar 6 has a blob over the middle; I've guessed that the notes are ga, similar to bars 9 and 10.
M: 2/4
L: 1/16
K: G
%  - - - - - - - - - - - - - - - - - - - - - - - - -
|:\
G4 d4 | B2d2 g2fe | d2 G4 A2 | B2cB A2G2 |\
G4 d4 | gfga g2e2 | f2d2 ((3A2B2^c2) | d4 z4 :|
|:\
dcde d2e2 | fefg f2g2 | a2f2d2c2 | c2B2B2A2 |\
G4 d4 | g2fe d2c2 | B2G2A2c2 | B2G2G2z2 :|
%  - - - - - - - - - - - - - - - - - - - - - - - - -
%%begintext align
%% Foot it & right hands & left half round
%% the same back again lead your Part: down
%% 2 Cu. up again cast off hands 4 round set
%% corners lead outsides
%%endtext

%%sep 1 1 500
%%sep 1 1 500
